X: 32038
T: Peggy's
R: jig
M: 6/8
K: Gmajor
|:BAB GBd|cBc E2G|FED cAF|GFG D2c|
BAB GBd|cBc E2G|FED cAF|GAG G3:|
|:dBd def|gfg d2g|fef A2c|Bdd GBc|
dBd def|gfg d2g|fed cAF|GAG G3:|

